X:1
T:O pazza ed' insensa
T:Benedetto Ferrari
T:Source : Musiche Varie a voce sola---Libro Secondo---Venetia---B.Magni---1637. Editor : André Vierendeels (03/01/17).
T:Notes : Original clefs : C1, F4 Original note values have been halved in 3-beat measures Figures in BC are notated in original print
T:O pazza ed' insensata
T:©
T:©
T:©
C:Benedetto Ferrari
Z:©
%%score 1 { 2 | 3 }
L:1/8
Q:1/4=103
M:4/4
K:F
V:1 treble nm="Soprano" snm="S"
V:2 treble nm="MusicXML Part"
V:3 bass 
V:1
 Bc d6 | BB/B/ B/A/A B2 G2 | z2 z A AAAB | cccc c3 d/^F/ | ^F G2 G z4 | BA A/B/ c4 B- | %6
w: O _ _|paz za ed' in sen- sa- * ta|ch'un fug- gi- ti- vo'a-|man- te se- gui'o- gnor dis- per-|sa- * ta,|fer- ma, fer- * * *|
w: Ah, _ _|ah, fà ch'il ter- ra cag- gi- a,|l'i- dol de' pen- sier|tu- i che ri- scher- 'e d'ol-|trag- gi- a,|ne far, ne- * far piu|
w: Deh , _|deh, co- no sci- te stes- * sa,|che s'in- al- za di|ra- do mo- le ab- bat- tu-|t'e'op- pres- sa,|non t'al- lun- * ga non|
 B3 B/A/ A3 A | z ABc FF F2- | FFFE E/F/ G2 G | z2 AE E ^F2 F | z2 B^F F G2 G | z2 AB B A3 | G8 | %13
w: * ma le pian- te|e non vo- ler col clie|_ del vol- to bel- * * lo,|far be- a- * to,|far be- a- * to|un ru- bel- *|lo|
w: _ no- ta al- trui|che don- na dal do- ver|_ tor- ce lme ci- * * glia,|e al suo peg- gio,|e al suo peg- gio|s'ap- pi- gli- *|a,|
w: _ t'al- * lun- ga,|dal gua- do, che nell' on-|* de d'a- mor spie- * ta- te,|e fel- le sem- pre,|e fel- le sem- pre|re- gnan pro- cel-|le,|
[M:6/4] z6 z2 D2 E2 | F2 F2 z2 z2 F2 G2 | A2 G2 A2 =B4 B2 | z2 d2 =B2 c2 c2 z2 | %17
w: te non|se- gue, te non|se- gue, non se- gue|e non fug- gi|
w: te non|bra- ma, te non|bra- ma, non bra- ma,|e tu l'a- mi|
w: te non|cu- ta, te non|cu- ta, non cu- ta,|e ti la- gni|
 z2 c2 B2 A2 B2 c2 | d4 d2 z2 c2 G2 | A4 A2 z6 | d2 c2 d2 B6 | c2 B2 c2 A6 | D2 E2 F2 E2 A4- | %23
w: e'i non t'a- ma, non|t'a- ma e ti|strug- gi?|la- scia lo star,|la- scia o gir,|nel di- sa- mar mai,|
w: e'i non den- te, non|sen- te, e tu'l|chia- mi?||||
w: e- gli ri- de, gli|ri de e tu|pla- gni?||||
 A2 B4- B2 AB c2 | TA4 G2 !fermata!G6 |] %25
w: _ mai- * * * *|v'è mar- tir.|
w: ||
w: ||
V:2
 z8 | z8 | z8 | z8 | z8 | z8 | z8 | z8 | z8 | z8 | z8 | z8 | z8 |[M:6/4] z12 | z12 | z12 | z12 | %17
 z12 | z12 |"^Lascia""^Lascia" z12 | z12 | z12 | z12 | z12 | z12 |] %25
V:3
"^BC" G,,8- | G,,8- | G,,8- | G,,8- | G,,8 | G,4 E,4- | E,4 F,4- | F,8 | D,4 C,4- | C,4 D,4- | %10
 D,4 _E,4 | C,4 D,4 | G,,8 |[M:6/4] z2 G,,2 A,,2 B,,6- | B,,2 D,2 E,2 F,2 D,2 E,2 | %15
 F,2 E,2 F,2 G,6 | F,2 G,4 C,2 C2 B,2 | A,4 G,2 F,4 E,2 | D,2 C,2 B,,2 C,6 | F,,6 z6 | %20
"^6 5 6" D,6 _E,2 D,2 E,2 |"^6 5 6""^#""^#" C,6 D,2 C,2 D,2 |"^6 5""^5 6" B,,6 C,6 | %23
"^#""^6" D,6 _E,2 C,4 |"^4#" D,6 !fermata!G,,6 |] %25

